X:73
T: HAETT ICH DEN ZOLL AM RHEIN
N: E1088
O: Europa, Mitteleuropa, Deutschland
R: Wunsch - Lied, Trink - Lied
M: 4/4
L: 1/4
K: G
B | ABdB | A2z
B | ABdc | A2z
A | BABc | d2d
c | BBAA | B
Gd2 | zGd2 | zGd

@@@ Tune index: 4757
